<?xml version="1.0" encoding="UTF-8"?>
<map version="1.10" tiledversion="1.12.1" orientation="orthogonal" renderorder="right-down" width="20" height="20" tilewidth="16" tileheight="16" infinite="0" nextlayerid="17" nextobjectid="298">
 <editorsettings>
  <export target="../level6.lua" format="lua"/>
 </editorsettings>
 <tileset firstgid="1" name="basic" tilewidth="16" tileheight="16" tilecount="72" columns="12">
  <image source="../../assets/tilesets/tileset.png" width="192" height="96"/>
 </tileset>
 <tileset firstgid="73" name="orbs" tilewidth="16" tileheight="16" tilecount="1" columns="1">
  <image source="../../assets/tilesets/orbs.png" width="16" height="16"/>
 </tileset>
 <tileset firstgid="74" name="miscellaneus" tilewidth="16" tileheight="16" tilecount="8" columns="4">
  <image source="../../assets/tilesets/miscellaneus.png" width="64" height="32"/>
 </tileset>
 <layer id="1" name="foreground" width="20" height="20">
  <data encoding="csv">
0,0,0,0,0,0,0,0,0,0,0,0,0,0,0,0,0,0,0,0,
15,0,0,0,0,0,0,0,0,0,0,0,0,0,0,0,0,0,0,0,
15,0,0,0,0,0,0,0,0,0,0,0,0,0,0,0,0,0,0,0,
15,0,0,0,0,0,0,0,0,0,0,0,0,0,0,0,0,0,0,0,
15,0,0,0,0,0,0,0,0,0,0,0,0,0,0,0,0,0,0,0,
15,0,0,0,0,0,0,0,0,0,0,0,0,0,0,0,0,0,0,0,
28,3,0,0,0,0,0,0,0,0,0,0,0,0,0,0,0,0,0,0,
14,15,0,0,0,0,0,0,0,0,0,0,18,0,0,0,0,0,0,0,
14,15,0,0,0,0,0,0,0,0,0,0,18,0,0,0,0,0,0,0,
14,15,0,2,0,0,0,2,0,0,0,0,18,0,0,0,0,0,0,0,
14,15,0,0,0,0,0,0,0,0,0,0,18,0,0,0,0,0,0,0,
14,15,0,0,0,0,0,0,0,0,0,0,18,0,0,0,0,0,0,0,
14,15,0,0,0,0,0,0,0,1,2,2,30,0,0,0,0,0,0,0,
14,15,0,0,0,0,0,0,0,18,0,0,0,0,0,0,0,0,0,0,
14,15,0,0,0,0,0,0,0,18,0,0,0,0,0,0,0,0,0,0,
14,15,0,0,0,0,0,1,2,30,0,0,0,0,0,0,0,0,0,0,
14,15,0,0,0,0,0,13,0,0,0,0,0,0,0,0,0,0,0,0,
14,15,0,0,0,0,0,13,0,0,0,0,0,0,0,0,0,0,0,0,
14,28,29,29,29,29,29,30,0,0,0,0,0,0,0,0,0,0,0,0,
14,14,14,14,14,14,14,14,0,0,0,0,0,0,0,0,0,0,0,0
</data>
 </layer>
 <layer id="11" name="miscellaneus" width="20" height="20">
  <data encoding="csv">
0,0,0,0,0,0,0,0,0,0,0,0,0,0,0,0,0,0,0,0,
0,0,0,0,0,0,0,0,0,0,0,0,0,0,0,0,0,0,0,0,
0,0,0,0,0,0,0,0,0,0,0,0,0,0,0,0,0,0,0,0,
0,0,0,0,0,0,0,0,0,0,0,0,0,0,0,0,0,0,0,0,
0,0,0,0,0,0,0,0,0,0,0,0,0,0,0,0,0,0,0,0,
0,0,0,0,0,0,0,0,0,0,0,0,0,0,0,0,0,0,0,0,
0,0,0,0,0,0,0,0,0,0,0,0,0,0,0,0,0,0,0,0,
0,0,0,0,0,0,0,0,0,0,0,0,0,0,0,0,0,0,0,0,
0,0,0,0,0,0,0,0,0,0,0,0,0,0,0,0,0,0,0,0,
0,0,0,0,0,0,0,0,0,0,0,0,0,0,0,0,0,0,0,0,
0,0,0,0,0,0,0,0,0,0,0,0,0,0,0,0,0,0,0,0,
0,0,0,0,0,0,0,0,0,0,0,0,0,0,0,0,0,0,0,0,
0,0,0,0,0,0,0,0,0,0,0,0,0,0,0,0,0,0,0,0,
0,0,0,0,0,0,0,0,0,0,0,0,0,0,0,0,0,0,0,0,
0,0,0,0,0,0,0,0,0,0,0,0,0,0,0,0,0,0,0,0,
0,0,0,0,0,0,0,0,0,0,0,0,0,0,0,0,0,0,0,0,
0,0,0,0,0,0,0,0,0,0,0,0,0,0,0,0,0,0,0,0,
0,0,0,0,81,0,0,0,0,0,0,0,0,0,0,0,0,0,0,0,
0,0,0,0,0,0,0,0,0,0,0,0,0,0,0,0,0,0,0,0,
0,0,0,0,0,0,0,0,0,0,0,0,0,0,0,0,0,0,0,0
</data>
 </layer>
 <layer id="10" name="orbs" width="20" height="20">
  <data encoding="csv">
0,0,0,0,0,0,0,0,0,0,0,0,0,0,0,0,0,0,0,0,
0,0,0,0,0,0,0,0,0,0,0,0,0,0,0,0,0,0,0,0,
0,0,0,0,0,0,0,0,0,0,0,0,0,0,0,0,0,0,0,0,
0,0,0,0,0,0,0,0,0,0,0,0,0,0,0,0,0,0,0,0,
0,0,0,0,0,0,0,0,0,0,0,0,0,0,0,0,0,0,0,0,
0,0,0,0,0,0,0,0,0,0,0,0,0,0,0,0,0,0,0,0,
0,0,0,0,0,0,0,0,0,0,0,0,0,0,0,0,0,0,0,0,
0,0,0,0,0,0,0,0,0,0,0,0,0,0,0,0,0,0,0,0,
0,0,0,0,0,0,0,0,0,0,0,0,0,0,0,0,0,0,0,0,
0,0,0,0,0,0,0,0,0,0,0,0,0,0,0,0,0,0,0,0,
0,0,0,0,0,0,0,0,0,0,0,0,0,0,0,0,0,0,0,0,
0,0,0,0,0,0,0,0,0,0,0,0,0,0,0,0,0,0,0,0,
0,0,0,0,0,0,0,0,0,0,0,0,0,0,0,0,0,0,0,0,
0,0,0,0,0,0,0,0,0,0,0,0,0,0,0,0,0,0,0,0,
0,0,0,0,0,0,0,0,0,0,0,0,0,0,0,0,0,0,0,0,
0,0,0,0,0,0,0,0,0,0,0,0,0,0,0,0,0,0,0,0,
0,0,0,0,0,0,0,0,0,0,0,0,0,0,0,0,0,0,0,0,
0,0,0,0,0,0,0,0,0,0,0,0,0,0,0,0,0,0,0,0,
0,0,0,0,0,0,0,0,0,0,0,0,0,0,0,0,0,0,0,0,
0,0,0,0,0,0,0,0,0,0,0,0,0,0,0,0,0,0,0,0
</data>
 </layer>
 <objectgroup id="2" name="walls">
  <object id="285" x="31" y="97" width="1" height="191"/>
  <object id="286" x="15" y="17" width="1" height="79"/>
  <object id="287" x="48" y="145" width="1" height="14"/>
  <object id="289" x="127" y="145" width="1" height="14"/>
  <object id="290" x="63" y="145" width="1" height="14"/>
  <object id="291" x="111.699" y="144.177" width="1" height="14"/>
  <object id="292" x="112" y="242.007" width="1" height="46"/>
  <object id="293" x="144" y="193" width="1" height="47"/>
  <object id="295" x="192" y="113" width="1" height="78"/>
 </objectgroup>
 <objectgroup id="3" name="solid">
  <object id="273" x="0" y="288" width="128" height="32"/>
  <object id="275" x="0" y="96" width="31" height="192"/>
  <object id="276" x="113" y="240" width="15" height="48"/>
  <object id="277" x="113" y="240" width="47" height="16"/>
  <object id="278" x="145" y="192" width="15" height="48"/>
  <object id="279" x="49" y="144" width="14" height="16"/>
  <object id="281" x="113" y="144" width="14" height="16"/>
  <object id="282" x="145" y="192" width="63" height="16"/>
  <object id="283" x="193" y="112" width="15" height="80"/>
  <object id="284" x="0" y="16" width="15" height="80"/>
 </objectgroup>
 <objectgroup id="12" name="torch"/>
 <objectgroup id="4" name="player">
  <object id="288" x="32" y="272" width="16" height="16"/>
 </objectgroup>
 <objectgroup id="6" name="door">
  <object id="296" x="16" y="72" width="24" height="24"/>
 </objectgroup>
 <group id="15" name="enemies">
  <objectgroup id="16" name="worms"/>
  <objectgroup id="7" name="mushrooms"/>
 </group>
 <objectgroup id="8" name="spikes"/>
 <objectgroup id="9" name="stones"/>
 <objectgroup id="13" name="hint" locked="1">
  <object id="297" x="64" y="272" width="16" height="16">
   <properties>
    <property name="hint_text"> TRY
DOUBLE
 JUMP</property>
   </properties>
  </object>
 </objectgroup>
 <objectgroup id="14" name="fauna"/>
</map>
